etc/img/icons/codicons-set/circle-large.svg

<svg width="16" height="16" viewBox="0 0 16 16" xmlns="http://www.w3.org/2000/svg" fill="white"><path fill-rule="evenodd" clip-rule="evenodd" d="M9.58854 2.2153L9.58854 2.21528C9.08311 2.07252 8.55496 2 8.00098 2C7.44699 2 6.91884 2.07252 6.41341 2.21528L6.40659 2.21721L6.40659 2.21718C5.89259 2.35843 5.41641 2.55904 4.97513 2.81819C4.5335 3.08023 4.12844 3.39515 3.75886 3.76472C3.39532 4.12826 3.08274 4.53252 2.82014 4.97935L2.81818 4.98267L2.81818 4.98267C2.55924 5.41938 2.35622 5.89379 2.21039 6.409C2.07155 6.91543 2.00098 7.44479 2.00098 8C2.00098 8.5552 2.07155 9.08455 2.21038 9.59097C2.35622 10.1062 2.55946 10.5836 2.81921 11.0259C3.08148 11.4679 3.39423 11.8729 3.75887 12.2421C4.12806 12.6068 4.53308 12.9195 4.97513 13.1818C5.41737 13.4415 5.89472 13.6447 6.40994 13.7906C6.91638 13.9294 7.44575 14 8.00098 14C8.55619 14 9.08555 13.9294 9.59198 13.7906C10.1072 13.6448 10.5816 13.4417 11.0183 13.1828L11.0216 13.1808L11.0216 13.1808C11.4685 12.9182 11.8727 12.6057 12.2363 12.2421C12.6058 11.8726 12.9207 11.4675 13.1827 11.0259C13.4419 10.5846 13.6425 10.1084 13.7838 9.59439L13.7857 9.58756L13.7857 9.58757C13.9285 9.08213 14.001 8.55398 14.001 8C14.001 7.44602 13.9285 6.91787 13.7857 6.41243L13.7838 6.40562L13.7838 6.40561C13.6425 5.8916 13.4421 5.41838 13.1838 4.98267L13.1818 4.97935L13.1818 4.97935C12.9204 4.53447 12.6069 4.13142 12.24 3.7685L12.2324 3.76097L12.2325 3.76093C11.8696 3.3941 11.4665 3.08062 11.0216 2.81916L11.0183 2.81721L11.0183 2.8172C10.5826 2.55885 10.1094 2.35844 9.59537 2.21718L9.58854 2.2153ZM14.0439 11.5342C13.7386 12.0492 13.3717 12.5208 12.9434 12.9492C12.5195 13.373 12.0479 13.7376 11.5283 14.043C11.0133 14.3483 10.4574 14.5853 9.86035 14.7539C9.26335 14.918 8.64355 15 8.00098 15C7.3584 15 6.73861 14.918 6.1416 14.7539C5.5446 14.5853 4.98633 14.3483 4.4668 14.043C3.95182 13.7376 3.48014 13.373 3.05176 12.9492C2.62793 12.5208 2.26335 12.0492 1.95801 11.5342C1.65267 11.0146 1.41569 10.4564 1.24707 9.85938C1.08301 9.26237 1.00098 8.64258 1.00098 8C1.00098 7.35742 1.08301 6.73763 1.24707 6.14062C1.41569 5.54362 1.65267 4.98763 1.95801 4.47266C2.26335 3.95312 2.62793 3.48145 3.05176 3.05762C3.48014 2.62923 3.95182 2.26237 4.4668 1.95703C4.98633 1.65169 5.5446 1.41699 6.1416 1.25293C6.73861 1.08431 7.3584 1 8.00098 1C8.64355 1 9.26335 1.08431 9.86035 1.25293C10.4574 1.41699 11.0133 1.65169 11.5283 1.95703C12.0479 2.26237 12.5195 2.62923 12.9434 3.05762C13.3717 3.48145 13.7386 3.95312 14.0439 4.47266C14.3493 4.98763 14.584 5.54362 14.748 6.14062C14.9167 6.73763 15.001 7.35742 15.001 8C15.001 8.64258 14.9167 9.26237 14.748 9.85938C14.584 10.4564 14.3493 11.0146 14.0439 11.5342Z"/></svg>

<svg width="16" height="16" viewBox="0 0 16 16" xmlns="http://www.w3.org/2000/svg" fill="white"><path fill-rule="evenodd" clip-rule="evenodd" d="M9.588 2.215A5.808 5.808 0 0 0 8 2c-.554 0-1.082.073-1.588.215l-.006.002c-.514.141-.99.342-1.432.601A6.156 6.156 0 0 0 2.82 4.98l-.002.004A5.967 5.967 0 0 0 2.21 6.41 5.986 5.986 0 0 0 2 8c0 .555.07 1.085.21 1.591a6.05 6.05 0 0 0 1.548 2.651c.37.365.774.677 1.216.94a6.1 6.1 0 0 0 1.435.609A6.02 6.02 0 0 0 8 14c.555 0 1.085-.07 1.591-.21.515-.145.99-.348 1.426-.607l.004-.002a6.16 6.16 0 0 0 2.161-2.155 5.85 5.85 0 0 0 .6-1.432l.003-.006A5.807 5.807 0 0 0 14 8c0-.554-.072-1.082-.215-1.588l-.002-.006a5.772 5.772 0 0 0-.6-1.423l-.002-.004a5.9 5.9 0 0 0-.942-1.21l-.008-.008a5.902 5.902 0 0 0-1.21-.942l-.004-.002a5.772 5.772 0 0 0-1.423-.6l-.006-.002zm4.455 9.32a7.157 7.157 0 0 1-2.516 2.508 6.966 6.966 0 0 1-1.668.71A6.984 6.984 0 0 1 8 15a6.984 6.984 0 0 1-1.86-.246 7.098 7.098 0 0 1-1.674-.711 7.3 7.3 0 0 1-1.415-1.094 7.295 7.295 0 0 1-1.094-1.415 7.098 7.098 0 0 1-.71-1.675A6.985 6.985 0 0 1 1 8c0-.643.082-1.262.246-1.86a6.968 6.968 0 0 1 .711-1.667 7.156 7.156 0 0 1 2.509-2.516 6.895 6.895 0 0 1 1.675-.704A6.808 6.808 0 0 1 8 1a6.8 6.8 0 0 1 1.86.253 6.899 6.899 0 0 1 3.083 1.805 6.903 6.903 0 0 1 1.804 3.083C14.916 6.738 15 7.357 15 8s-.084 1.262-.253 1.86a6.9 6.9 0 0 1-.704 1.674z"/></svg>
